!!!!SEGMENT: Fss3004-Amor_se_voi_chio_torni.krn
!!!id: Fss3004
!!!AGN: Frottola
!!!voices: 4
!!!COM: Sebastiano Festa
!!!OTL: Amor, se voi ch'io torni
**kern	**kern	**kern	**kern
*part4	*part3	*part2	*part1
*staff4	*staff3	*staff2	*staff1
*I"Bassus	*I"Tenor	*I"Altus	*I"Superius
*I'B	*I'T	*I'A	*I'S
*clefF4	*clefGv2	*clefGv2	*clefG2
*k[b-]	*k[b-]	*k[b-]	*k[b-]
*F:	*F:	*F:	*F:
*M2/1	*M2/1	*M2/1	*M2/1
*met(C|)	*met(C|)	*met(C|)	*met(C|)
=1	=1	=1	=1
1F	1f	1c	1a
2F	2f	2c	2a
2F	2f	2c	2a
=2	=2	=2	=2
2F	2f	2c	2a
2F	2f	2c	2a
2C	2e	2.c	2g
2F	2f	.	2a
.	.	4d	.
=3	=3	=3	=3
2E-X	2.g	2e-X	2b-y
2F	.	2c	2a
.	4f	.	.
[1C	2.e	[1c	2.g
.	4d	.	4f
=4	=4	=4	=4
1C]	4e	1c]	4g
.	2f	.	4a
.	.	.	2g
.	4e	.	.
1F	2f	2c	2f
.	2a	2f	2cc
=5	=5	=5	=5
2F	2a	2.f	2cc
2F	2a	.	2cc
.	.	4e	.
2G	2.g	2d	2.b-y
2G	.	2d	.
.	4f	.	4a
=6	=6	=6	=6
2C	2e	2c	2g
2F	2f	2c	2a
2C	4e	2c	2g
.	4d	.	.
2F	[2c	2a	4f
.	.	.	4e
=7	=7	=7	=7
1G	2c]	2g	1d
.	2BnXi	2g	.
1C	2c	2g	1e
.	2c	2g	.
=8	=8	=8	=8
1F	2c	1f	2r
.	2c	.	2a
2C	2c	2e	2g
2F	[2c	2a	4f
.	.	.	4e
=9	=9	=9	=9
2G	2c]	2g	2d
2G	2BnXi	2g	2d
2C	2c	2g	2e
2C	2c	2g	2e
=10	=10	=10	=10
2r	2r	2r	2r
2C	2c	2e	2g
2D	2A	2.d	2f
2G	2B-y	.	2g
.	.	4e	.
=11	=11	=11	=11
2.F	4c	2.f	2.a
.	2d	.	.
4E	4c	4g	4g
2D	2d	2a	2f
2F	[2c	2f	2a
=12	=12	=12	=12
2F	2c]	2f	2a
2BB-y	1f	2d	2b-y
[1C	.	[1c	2.g
.	4e	.	.
.	4d	.	4f
=13	=13	=13	=13
1C]	4e	1c]	4g
.	2f	.	4a
.	.	.	2g
.	4e	.	.
1F	2f	1c	1f
.	2f	.	.
=14	=14	=14	=14
2r	2r	2r	2r
2F	2f	2c	2a
2C	2e	2c	2g
2D	2d	2A	2f
=15	=15	=15	=15
2.C	2.e	2.c	2.g
4C	4d	4c	4f
2C	2c	2G	2e
2C	2e	2c	2g
=16	=16	=16	=16
2D	2d	2A	2f
4E	1c	2G	2e
4F	.	.	.
1G	.	1g	1d
.	2BnXi	.	.
=17	=17	=17	=17
2C	2c	2e	1c
2F	2A	2f	.
2F	2A	2f	2c
2E	[2G	2g	[2c
=18	=18	=18	=18
1D	2G]	2a	2c]
.	2F	4g	2BnXi
.	.	4f	.
1C	2G	2e	2c
.	2G	2e	2c
=19	=19	=19	=19
1F	1A	2r	2r
.	.	2f	2cc
2C	2G	2e	2cc
2F	2A	2f	2cc
=20	=20	=20	=20
2BB-y	2B-y	2f	2dd
2C	2G	2e	2cc
2F	2F	2f	2a
2F	2F	2f	2a
=21	=21	=21	=21
2r	2r	2r	2r
2F	2A	2f	2cc
2C	2G	2e	2cc
2F	2A	2f	2cc
=22	=22	=22	=22
2BB-y	2B-y	2f	2dd
2C	2G	2e	2cc
2F	2F	2f	2a
2F	2F	2f	2a
=23	=23	=23	=23
2r	2r	2r	2r
2F	2c	2f	2a
2F	2c	2f	2a
2F	2c	2f	2a
=24	=24	=24	=24
2F	2c	2f	2a
2F	2c	2f	2a
[1F	[1c	[1f	[1a
=25	=25	=25	=25
1F]	1c]	1f]	1a]
2G	2B-y	2d	2g
2C	2c	2e	[2g
=26	=26	=26	=26
1D	1A	1d	2g]
.	.	.	2f#i
2G	2G	2d	2g
2G	2G	2d	2g
=27	=27	=27	=27
2r	2r	2r	2r
2F	2c	2f	2a
2F	2c	2f	2a
2F	2c	2f	2a
=28	=28	=28	=28
2F	2c	2f	2a
2F	2c	2f	2a
[1F	[1c	[1f	[1a
=29	=29	=29	=29
1F]	1c]	1f]	1a]
1BB-y	1B-y	1d	2f
.	.	.	[2f
=30	=30	=30	=30
2C	2G	2c	2f]
2C	2G	2c	2e
2F	2F	2A	2f
2F	2f	2c	2a
=31	=31	=31	=31
2C	2e	2c	2g
2F	2f	2c	2a
2G	2.d	2B-y	2b-y
2C	.	2c	2g
.	4e	.	.
=32	=32	=32	=32
2F	1.f	2c	2.a
2F	.	2c	.
.	.	.	4g
2F	.	2c	4a
.	.	.	4b-y
2F	2e	2c	[2cc
=33	=33	=33	=33
1G	2d	1g	2cc]
.	2d	.	2bnXi
2C	2e	2g	2cc
2F	2f	2c	2a
=34	=34	=34	=34
2B-y	2d	2d	2a
2B-y	2d	2d	2g
2A	2c	2e	2a
2A	2c	2e	2a
=35	=35	=35	=35
1F	2r	1f	2r
.	2c	.	2a
2BB-y	2d	2f	2b-y
[2F	[2c	[2f	[2a
=36	=36	=36	=36
2F]	2c]	2f]	2a]
2D	2B-y	2F	4g
.	.	.	4f
2C	2c	2G	2e
2C	2c	2G	2e
=37	=37	=37	=37
2F	2r	2f	2r
2F	2c	2f	2a
2BB-y	2d	2f	2b-y
[2F	2c	[2f	[2a
=38	=38	=38	=38
2F]	2A	2f]	2a]
2D	2B-y	2F	4g
.	.	.	4f
2C	2c	2G	2e
2C	2c	2G	2e
=39	=39	=39	=39
0r	2r	0r	2r
.	2f	.	2a
.	2e	.	2g
.	2d	.	2f
=40	=40	=40	=40
0r	2c	0r	2g
.	2B-y	.	2b-y
.	2.c	.	2.a
.	4B-y	.	4g
=41	=41	=41	=41
0r	2A	0r	2f
.	2G	.	2e
.	1F	.	2f
.	.	.	2f
=42	=42	=42	=42
2r	2r	2r	0r
2F	2f	2c	.
2F	2f	2c	.
2F	2f	2c	.
=43	=43	=43	=43
2F	2f	2c	0r
2F	2f	2c	.
[1B-y	[1f	[1d	.
=44	=44	=44	=44
2B-]	2f]	2d]	0r
2A	2f	2c	.
2G	2d	2B-y	.
2F	2d	2A	.
=45	=45	=45	=45
1G	1d	1B-y	0r
1C	1e	1c	.
=46	=46	=46	=46
2r	2r	2r	2r
2C	2c	2G	2e
2C	2c	2G	2e
2C	2G	2c	2e
=47	=47	=47	=47
2C	2G	2c	2e
2C	2A	2c	2e
1BB-y	2.B-y	1F	1d
.	4A	.	.
=48	=48	=48	=48
2C	4G	2c	2e
.	4F	.	.
2F	1f	2A	2f
1C	.	1G	1g
.	2e	.	.
=49	=49	=49	=49
1F	2f	2F	2a
.	2f	2F	2a
2r	2r	2r	2r
2F	2c	2f	2a
=50	=50	=50	=50
2C	2c	2e	2g
2F	2c	2f	2a
2G	1B-y	2d	2b-y
2G	.	2d	2b-y
=51	=51	=51	=51
2C	2.c	2e	2g
2C	.	2e	2g
.	4B-y	.	.
2D	2A	2d	[1f
2BB-y	[2B-y	2d	.
=52	=52	=52	=52
0C	4B-]	0c	2f]
.	4A	.	.
.	4G	.	4e
.	4F	.	4d
.	1G	.	2e
.	.	.	2f
=53	=53	=53	=53
1F	1F	1A	2f
.	.	.	2f
[1F	[1f	[1a	[1cc
=54	=54	=54	=54
1F]	1f]	1a]	1cc]
2G	2d	2g	2b-y
2E	2e	2g	2b-y
=55	=55	=55	=55
2F	2c	2f	2a
2D	2d	2f	2a
2E	2B-y	2e	2g
2C	2c	2e	2g
=56	=56	=56	=56
2D	2A	2d	1.f
2BB-y	2.B-y	2d	.
[1C	.	[1c	.
.	4A	.	.
.	4G	.	4e
.	4F	.	4d
=57	=57	=57	=57
1C]	1G	1c]	2e
.	.	.	2f
[1FFl	[1Fl	[1cl	[1f
=58	=58	=58	=58
0FF_	0F_	0c_	1f]
.	.	.	[1fl
=59	=59	=59	=59
00FF]	00F]	00c]	00f]
==	==	==	==
*-	*-	*-	*-
!!!system-decoration: [*]
!!!RDF**kern: i = editorial accidental
!!!RDF**kern: l = terminal long
!!!ENC: Benjamin Ory
!!!END: 2024/10/8
!!!EED: Benjamin Ory
!!!EEV: 2024/10/08
!!!YEC: Copyright 2024 Benjamin Ory, All Rights Reserved
!!!ONB: Translated from MusicXML on 2024/10/08